X:1
T:Fulton (Bradbury), 77.77
T:Fulton (Bradbury), 77.77
T:William Batchelder Bradbury, 1868
T:Public Domain Courtesy of the Cyber Hymnal™
C:William Batchelder Bradbury, 1868
Z:Public Domain
Z:Courtesy of the Cyber Hymnal™
%%score ( 1 2 ) ( 3 4 )
L:1/8
Q:1/4=103
M:4/4
K:Bb
V:1 treble 
V:2 treble 
V:3 bass 
V:4 bass 
V:1
 [Fd]2 ([Ec][DB]) [EG]2 (AB) | [CF]2 (Bd) [Fc]4 | [Fd]2 ([Ec][DB]) [EG]2 (AB) | %3
 ([DF][Fd]) (dc) [DB]4 | [Fc]2 [Fd]2 [Fe]2 (dc) | [Fd]2 [Fe]2 [Ff]4 | %6
 ([DF][Fd]) ([Fd][Ec]) ([Ec][DB]) [EG]2 | ([DF][Fd]) (dc) [DB]4 |] %8
V:2
 x6 E2 | x2 F2 x4 | x6 E2 | x2 E2 x4 | x6 F2 | x8 | x8 | x2 E2 x4 |] %8
V:3
 [B,,B,]2 [B,,B,]2 [E,B,]2 [E,G,]2 | A,2 B,2 [F,A,]4 | [B,,B,]2 [B,,B,]2 (B,A,) [E,G,]2 | %3
 [F,B,]2 [F,A,]2 [B,,B,]4 | [F,A,]2 [F,B,]2 [F,C]2 (B,A,) | B,2 [B,C]2 [B,D]4 | %6
 B,2 (B,F,) (F,B,) [E,B,]2 | [F,B,]2 [F,A,]2 [B,,B,]4 |] %8
V:4
 x8 | (F,E,) (D,B,,) x4 | x4 E,2 x2 | x8 | x6 F,2 | B,2 x6 | B,2 B,,2 B,,2 x2 | x8 |] %8

